logos/Flexam_title.svg

<svg version="1.0" preserveAspectRatio="xMidYMid meet" viewBox="21 165.749996022 333 107.999997408" zoomAndPan="magnify" xmlns:xlink="http://www.w3.org/1999/xlink" xmlns="http://www.w3.org/2000/svg" style="max-height: 500px" width="333" height="107.999997408"><defs><g/><clipPath id="7589ac2e8c"><path clip-rule="nonzero" d="M 29.339844 220.035156 L 42.53125 220.035156 L 42.53125 270.070312 L 29.339844 270.070312 Z M 29.339844 220.035156"/></clipPath><clipPath id="e49971ddbd"><path clip-rule="nonzero" d="M 35.933594 220.035156 C 39.578125 220.035156 42.53125 222.988281 42.53125 226.632812 L 42.53125 263.464844 C 42.53125 267.109375 39.578125 270.0625 35.933594 270.0625 C 32.292969 270.0625 29.339844 267.109375 29.339844 263.464844 L 29.339844 226.632812 C 29.339844 222.988281 32.292969 220.035156 35.933594 220.035156 Z M 35.933594 220.035156"/></clipPath><clipPath id="652d88331d"><path clip-rule="nonzero" d="M 0.339844 0.0351562 L 13.53125 0.0351562 L 13.53125 50.070312 L 0.339844 50.070312 Z M 0.339844 0.0351562"/></clipPath><clipPath id="4086f02819"><path clip-rule="nonzero" d="M 6.933594 0.0351562 C 10.578125 0.0351562 13.53125 2.988281 13.53125 6.632812 L 13.53125 43.464844 C 13.53125 47.109375 10.578125 50.0625 6.933594 50.0625 C 3.292969 50.0625 0.339844 47.109375 0.339844 43.464844 L 0.339844 6.632812 C 0.339844 2.988281 3.292969 0.0351562 6.933594 0.0351562 Z M 6.933594 0.0351562"/></clipPath><clipPath id="bac0048630"><rect height="51" y="0" width="14" x="0"/></clipPath></defs><g fill-opacity="1" fill="#000000"><g transform="translate(23.490237, 243.202088)"><g><path d="M 27.4375 -61.171875 L 26.125 -61.171875 C 23.53125 -61.171875 21.726562 -60.6875 20.71875 -59.71875 C 19.71875 -58.75 19.1875 -57 19.125 -54.46875 L 26.640625 -54.46875 L 26.640625 -43.359375 L 19.125 -43.359375 L 19.125 0 L 5.8125 0 L 5.8125 -43.359375 L 1 -43.359375 L 1 -54.46875 L 5.8125 -54.46875 C 6.34375 -59.34375 7.441406 -63.195312 9.109375 -66.03125 C 10.773438 -68.863281 12.894531 -70.898438 15.46875 -72.140625 C 18.039062 -73.378906 20.925781 -74 24.125 -74 C 24.59375 -74 25.0625 -74 25.53125 -74 C 26 -74 26.632812 -73.929688 27.4375 -73.796875 Z M 27.4375 -61.171875"/></g></g></g><g fill-opacity="1" fill="#000000"><g transform="translate(51.525262, 243.202088)"><g><path d="M 18.71875 0 L 5.40625 0 L 5.40625 -74 L 18.71875 -74 Z M 18.71875 0"/></g></g></g><g fill-opacity="1" fill="#000000"><g transform="translate(75.555278, 243.202088)"><g><path d="M 60.875 -26.9375 C 60.875 -25.9375 60.835938 -25.066406 60.765625 -24.328125 C 60.703125 -23.597656 60.570312 -22.765625 60.375 -21.828125 L 17.421875 -21.828125 C 18.222656 -18.492188 19.988281 -15.835938 22.71875 -13.859375 C 25.457031 -11.890625 28.796875 -10.90625 32.734375 -10.90625 C 35.472656 -10.90625 37.773438 -11.320312 39.640625 -12.15625 C 41.515625 -13 43.285156 -14.421875 44.953125 -16.421875 L 59.46875 -16.421875 C 58.269531 -12.617188 56.285156 -9.394531 53.515625 -6.75 C 50.742188 -4.113281 47.570312 -2.113281 44 -0.75 C 40.425781 0.613281 36.773438 1.296875 33.046875 1.296875 C 28.835938 1.296875 24.910156 0.5625 21.265625 -0.90625 C 17.628906 -2.375 14.441406 -4.425781 11.703125 -7.0625 C 8.972656 -9.695312 6.835938 -12.75 5.296875 -16.21875 C 3.765625 -19.6875 3 -23.457031 3 -27.53125 C 3 -31.601562 3.75 -35.40625 5.25 -38.9375 C 6.757812 -42.476562 8.847656 -45.582031 11.515625 -48.25 C 14.179688 -50.925781 17.28125 -53.015625 20.8125 -54.515625 C 24.351562 -56.015625 28.160156 -56.765625 32.234375 -56.765625 C 37.773438 -56.765625 42.695312 -55.476562 47 -52.90625 C 51.3125 -50.34375 54.703125 -46.804688 57.171875 -42.296875 C 59.640625 -37.796875 60.875 -32.675781 60.875 -26.9375 Z M 47.765625 -33.546875 C 46.890625 -37.078125 45.148438 -39.796875 42.546875 -41.703125 C 39.941406 -43.609375 36.570312 -44.5625 32.4375 -44.5625 C 28.5 -44.5625 25.210938 -43.609375 22.578125 -41.703125 C 19.941406 -39.796875 18.085938 -37.078125 17.015625 -33.546875 Z M 47.765625 -33.546875"/></g></g></g><g fill-opacity="1" fill="#000000"><g transform="translate(139.64648, 243.202088)"><g/></g></g><g fill-opacity="1" fill="#000000"><g transform="translate(167.681504, 243.202088)"><g/></g></g><g fill-opacity="1" fill="#000000"><g transform="translate(195.720695, 243.202088)"><g><path d="M 61.578125 0 L 49.359375 0 L 49.359375 -7.203125 C 46.691406 -4.203125 43.9375 -2.035156 41.09375 -0.703125 C 38.257812 0.628906 34.875 1.296875 30.9375 1.296875 C 25.53125 1.296875 20.722656 0.0625 16.515625 -2.40625 C 12.316406 -4.875 9.015625 -8.289062 6.609375 -12.65625 C 4.203125 -17.03125 3 -21.988281 3 -27.53125 C 3 -33.207031 4.21875 -38.226562 6.65625 -42.59375 C 9.09375 -46.96875 12.429688 -50.421875 16.671875 -52.953125 C 20.910156 -55.492188 25.765625 -56.765625 31.234375 -56.765625 C 35.242188 -56.765625 38.695312 -56.082031 41.59375 -54.71875 C 44.5 -53.351562 47.085938 -51.132812 49.359375 -48.0625 L 49.359375 -55.46875 L 61.578125 -55.46875 Z M 48.96875 -27.328125 C 48.96875 -30.734375 48.265625 -33.722656 46.859375 -36.296875 C 45.453125 -38.867188 43.53125 -40.890625 41.09375 -42.359375 C 38.664062 -43.828125 35.847656 -44.5625 32.640625 -44.5625 C 29.503906 -44.5625 26.703125 -43.828125 24.234375 -42.359375 C 21.765625 -40.890625 19.84375 -38.851562 18.46875 -36.25 C 17.101562 -33.644531 16.421875 -30.640625 16.421875 -27.234375 C 16.421875 -22.359375 17.9375 -18.414062 20.96875 -15.40625 C 24.007812 -12.40625 27.96875 -10.90625 32.84375 -10.90625 C 36.25 -10.90625 39.148438 -11.640625 41.546875 -13.109375 C 43.953125 -14.578125 45.789062 -16.546875 47.0625 -19.015625 C 48.332031 -21.492188 48.96875 -24.265625 48.96875 -27.328125 Z M 48.96875 -27.328125"/></g></g></g><g fill-opacity="1" fill="#000000"><g transform="translate(261.803237, 243.202088)"><g><path d="M 88.609375 0 L 75.296875 0 L 75.296875 -30.4375 C 75.296875 -34.175781 74.859375 -37.0625 73.984375 -39.09375 C 73.117188 -41.132812 71.898438 -42.554688 70.328125 -43.359375 C 68.765625 -44.160156 66.945312 -44.5625 64.875 -44.5625 C 61.207031 -44.5625 58.421875 -43.34375 56.515625 -40.90625 C 54.617188 -38.46875 53.671875 -33.941406 53.671875 -27.328125 L 53.671875 0 L 40.34375 0 L 40.34375 -30.4375 C 40.34375 -35.90625 39.425781 -39.625 37.59375 -41.59375 C 35.757812 -43.570312 33.070312 -44.5625 29.53125 -44.5625 C 25.664062 -44.5625 22.894531 -43.320312 21.21875 -40.84375 C 19.550781 -38.375 18.71875 -33.867188 18.71875 -27.328125 L 18.71875 0 L 5.40625 0 L 5.40625 -55.46875 L 17.625 -55.46875 L 17.625 -50.265625 C 19.5625 -52.597656 21.628906 -54.265625 23.828125 -55.265625 C 26.035156 -56.265625 28.773438 -56.765625 32.046875 -56.765625 C 35.847656 -56.765625 39.050781 -56.082031 41.65625 -54.71875 C 44.257812 -53.351562 46.492188 -51.164062 48.359375 -48.15625 C 50.628906 -51.164062 53.195312 -53.351562 56.0625 -54.71875 C 58.9375 -56.082031 62.3125 -56.765625 66.1875 -56.765625 C 73.53125 -56.765625 79.101562 -54.726562 82.90625 -50.65625 C 86.707031 -46.59375 88.609375 -40.390625 88.609375 -32.046875 Z M 88.609375 0"/></g></g></g><path stroke-miterlimit="4" stroke-opacity="1" stroke-width="15" stroke="#18139c" d="M 0.00197125 7.499799 L 94.828868 7.499724" stroke-linejoin="miter" fill="none" transform="matrix(0.413789, -0.625523, 0.625523, 0.413789, 142.585234, 242.733836)" stroke-linecap="butt"/><path stroke-miterlimit="4" stroke-opacity="1" stroke-width="15" stroke="#3426fe" d="M -0.00234607 7.500328 L 95.082381 7.5027" stroke-linejoin="miter" fill="none" transform="matrix(0.442918, 0.605247, -0.605247, 0.442918, 152.798402, 184.179391)" stroke-linecap="butt"/><g clip-path="url(#7589ac2e8c)"><g clip-path="url(#e49971ddbd)"><g transform="matrix(1, 0, 0, 1, 29, 220)"><g clip-path="url(#bac0048630)"><g clip-path="url(#652d88331d)"><g clip-path="url(#4086f02819)"><path fill-rule="nonzero" fill-opacity="1" d="M 0.339844 0.0351562 L 13.53125 0.0351562 L 13.53125 50.070312 L 0.339844 50.070312 Z M 0.339844 0.0351562" fill="#000000"/></g></g></g></g></g></g></svg>

<?xml version="1.0"?>
<svg width="333" height="107.999997408" xmlns="http://www.w3.org/2000/svg" xmlns:svg="http://www.w3.org/2000/svg" preserveAspectRatio="xMidYMid meet" version="1.0">
 <defs>
  <g id="svg_1"/>
  <clipPath id="7589ac2e8c">
   <path clip-rule="nonzero" d="m29.34,220.04l13.19,0l0,50.03l-13.19,0l0,-50.03zm0,0" id="svg_2"/>
  </clipPath>
  <clipPath id="e49971ddbd">
   <path clip-rule="nonzero" d="m35.93,220.04c3.65,0 6.6,2.95 6.6,6.59l0,36.83c0,3.65 -2.95,6.6 -6.6,6.6c-3.64,0 -6.59,-2.95 -6.59,-6.6l0,-36.83c0,-3.64 2.95,-6.59 6.59,-6.59zm0,0" id="svg_3"/>
  </clipPath>
  <clipPath id="652d88331d">
   <path clip-rule="nonzero" d="m0.34,0.04l13.19,0l0,50.03l-13.19,0l0,-50.03zm0,0" id="svg_4"/>
  </clipPath>
  <clipPath id="4086f02819">
   <path clip-rule="nonzero" d="m6.93,0.04c3.65,0 6.6,2.95 6.6,6.59l0,36.83c0,3.65 -2.95,6.6 -6.6,6.6c-3.64,0 -6.59,-2.95 -6.59,-6.6l0,-36.83c0,-3.64 2.95,-6.59 6.59,-6.59zm0,0" id="svg_5"/>
  </clipPath>
  <clipPath id="bac0048630">
   <rect height="51" id="svg_6" width="14" x="0" y="0"/>
  </clipPath>
 </defs>
 <g class="layer">
  <title>Layer 1</title>
  <g fill="#000000" id="svg_7" transform="translate(0.769231 -0.25641) translate(1.28205 2.5641) matrix(1 0 0 1 -20 -165.385)">
   <g id="svg_8" transform="translate(23.490237, 243.202088)">
    <g id="svg_9">
     <path d="m27.44,-61.17l-1.31,0c-2.6,0 -4.4,0.48 -5.41,1.45c-1,0.97 -1.53,2.72 -1.59,5.25l7.51,0l0,11.11l-7.51,0l0,43.36l-13.32,0l0,-43.36l-4.81,0l0,-11.11l4.81,0c0.53,-4.87 1.63,-8.73 3.3,-11.56c1.66,-2.83 3.78,-4.87 6.36,-6.11c2.57,-1.24 5.46,-1.86 8.66,-1.86c0.46,0 0.93,0 1.4,0c0.47,0 1.1,0.07 1.91,0.2l0,12.63zm0,0" id="svg_10"/>
    </g>
   </g>
  </g>
  <g fill="#000000" id="svg_11" transform="translate(-0.25641 2.5641) matrix(1 0 0 1 -15.1282 -165.385)">
   <g id="svg_12" transform="translate(51.525262, 243.202088)">
    <g id="svg_13">
     <path d="m18.72,0l-13.31,0l0,-74l13.31,0l0,74zm0,0" id="svg_14"/>
    </g>
   </g>
  </g>
  <g fill="#000000" id="svg_15" transform="translate(0.512821 0.769231) translate(-3.07692 3.07692) matrix(1 0 0 1 -11.5384 -168.206)">
   <g id="svg_16" transform="translate(75.555278, 243.202088)">
    <g id="svg_17">
     <path d="m60.88,-26.94c0,1 -0.04,1.87 -0.11,2.61c-0.07,0.73 -0.2,1.56 -0.39,2.5l-42.96,0c0.8,3.34 2.57,5.99 5.3,7.97c2.74,1.97 6.08,2.95 10.01,2.95c2.74,0 5.04,-0.41 6.91,-1.25c1.88,-0.84 3.65,-2.26 5.31,-4.26l14.52,0c-1.2,3.8 -3.18,7.03 -5.95,9.67c-2.78,2.64 -5.95,4.64 -9.52,6c-3.57,1.36 -7.23,2.05 -10.95,2.05c-4.21,0 -8.14,-0.74 -11.78,-2.21c-3.64,-1.47 -6.83,-3.52 -9.57,-6.15c-2.73,-2.64 -4.86,-5.69 -6.4,-9.16c-1.53,-3.47 -2.3,-7.24 -2.3,-11.31c0,-4.07 0.75,-7.88 2.25,-11.41c1.51,-3.54 3.6,-6.64 6.27,-9.31c2.66,-2.68 5.76,-4.77 9.29,-6.27c3.54,-1.5 7.35,-2.25 11.42,-2.25c5.54,0 10.47,1.29 14.77,3.86c4.31,2.57 7.7,6.11 10.17,10.61c2.47,4.5 3.71,9.62 3.71,15.36zm-13.11,-6.61c-0.88,-3.53 -2.62,-6.25 -5.22,-8.15c-2.61,-1.91 -5.98,-2.86 -10.11,-2.86c-3.94,0 -7.23,0.95 -9.86,2.86c-2.64,1.9 -4.49,4.62 -5.56,8.15l30.75,0zm0,0" id="svg_18"/>
    </g>
   </g>
  </g>
  <g fill="#000000" id="svg_19">
   <g id="svg_20" transform="translate(139.64648, 243.202088)">
    <g id="svg_21"/>
   </g>
  </g>
  <g fill="#000000" id="svg_22">
   <g id="svg_23" transform="translate(167.681504, 243.202088)">
    <g id="svg_24"/>
   </g>
  </g>
  <g fill="#000000" id="svg_25" transform="translate(0 0.25641) translate(-0.25641 1.02564) matrix(1 0 0 1 -22.0513 -164.359)">
   <g id="svg_26" transform="translate(195.720695, 243.202088)">
    <g id="svg_27">
     <path d="m61.58,0l-12.22,0l0,-7.2c-2.67,3 -5.42,5.16 -8.27,6.5c-2.83,1.33 -6.21,2 -10.15,2c-5.41,0 -10.22,-1.24 -14.42,-3.71c-4.2,-2.47 -7.5,-5.88 -9.91,-10.25c-2.41,-4.37 -3.61,-9.33 -3.61,-14.87c0,-5.68 1.22,-10.7 3.66,-15.06c2.43,-4.38 5.77,-7.83 10.01,-10.36c4.24,-2.54 9.1,-3.82 14.56,-3.82c4.01,0 7.47,0.69 10.36,2.05c2.91,1.37 5.5,3.59 7.77,6.66l0,-7.41l12.22,0l0,55.47zm-12.61,-27.33c0,-3.4 -0.7,-6.39 -2.11,-8.97c-1.41,-2.57 -3.33,-4.59 -5.77,-6.06c-2.43,-1.47 -5.24,-2.2 -8.45,-2.2c-3.14,0 -5.94,0.73 -8.41,2.2c-2.46,1.47 -4.39,3.51 -5.76,6.11c-1.37,2.61 -2.05,5.61 -2.05,9.02c0,4.87 1.52,8.82 4.55,11.82c3.04,3 7,4.5 11.87,4.5c3.41,0 6.31,-0.73 8.71,-2.2c2.4,-1.47 4.24,-3.44 5.51,-5.91c1.27,-2.47 1.91,-5.25 1.91,-8.31zm0,0" id="svg_28"/>
    </g>
   </g>
  </g>
  <g fill="#000000" id="svg_29" transform="translate(0.25641 0.512821) translate(-0.25641 2.82051) matrix(1 0 0 1 -22.5641 -166.154)">
   <g id="svg_30" transform="translate(261.803237, 243.202088)">
    <g id="svg_31">
     <path d="m88.61,0l-13.31,0l0,-30.44c0,-3.74 -0.44,-6.62 -1.32,-8.65c-0.86,-2.04 -2.08,-3.46 -3.65,-4.27c-1.56,-0.8 -3.38,-1.2 -5.45,-1.2c-3.67,0 -6.46,1.22 -8.36,3.65c-1.9,2.44 -2.85,6.97 -2.85,13.58l0,27.33l-13.33,0l0,-30.44c0,-5.47 -0.91,-9.19 -2.75,-11.15c-1.83,-1.98 -4.52,-2.97 -8.06,-2.97c-3.87,0 -6.64,1.24 -8.31,3.72c-1.67,2.46 -2.5,6.97 -2.5,13.51l0,27.33l-13.31,0l0,-55.47l12.22,0l0,5.2c1.93,-2.33 4,-4 6.2,-5c2.21,-1 4.94,-1.5 8.22,-1.5c3.8,0 7,0.69 9.61,2.05c2.6,1.37 4.83,3.56 6.7,6.56c2.27,-3 4.84,-5.19 7.7,-6.56c2.88,-1.36 6.25,-2.05 10.13,-2.05c7.34,0 12.91,2.04 16.72,6.11c3.8,4.07 5.7,10.27 5.7,18.61l0,32.05zm0,0" id="svg_32"/>
    </g>
   </g>
  </g>
  <path d="m128.82,80.71l39.24,-59.32" fill="none" id="svg_33" stroke="#18139c" stroke-miterlimit="4" stroke-width="15"/>
  <path d="m129.28,22.12l42.11,57.55" fill="none" id="svg_34" stroke="#3426fe" stroke-miterlimit="4" stroke-width="15"/>
  <g clip-path="url(#7589ac2e8c)" id="svg_35" transform="translate(2.05128 -0.769231) matrix(1 0 0 1 -20 -165.385)">
   <g clip-path="url(#e49971ddbd)" id="svg_36">
    <g id="svg_37" transform="matrix(1, 0, 0, 1, 29, 220)">
     <g clip-path="url(#bac0048630)" id="svg_38">
      <g clip-path="url(#652d88331d)" id="svg_39">
       <g clip-path="url(#4086f02819)" id="svg_40">
        <path d="m0.34,0.04l13.19,0l0,50.03l-13.19,0l0,-50.03zm0,0" fill="#000000" fill-rule="nonzero" id="svg_41"/>
       </g>
      </g>
     </g>
    </g>
   </g>
  </g>
 </g>
</svg>
